X: 1
T: Haste to the Wedding
O: Arr: Peter White
R: jig
B: Hugh Foss "DANCES to SONG TUNES" 1966 (music: Peter White)
Z: 2010 John Chambers <jc:trillian.mit.edu>
M: 6/8
L: 1/8
K: D
B \
| "D"AFA "F#m"Aaf | "Em"ede "D"fdB | "D"AFA AdF | "Em"EFE "A7"E2A |
| "D"AFA "F#m"Aaf | "Em"ede "D"fdB | "D"AFA "A7"faf | "D"ded d2f/g/ |
| "D"afa "B7"afa | "Em"bgb "A7"bgb | "D"afa "B7"agf | "E7"efe "A7"e2f/g/ |
| "D".a3 "F#m"kf3 | "Em"ede "D"fdB | "D"AFA "A7"faf | "D"ded d2 :|
